X: 31323
T: Paddy Mac's
R: reel
M: 4/4
K: Bdorian
|:B3 c dcde|f=gfe def^g|aA (3AAA (3FGA ED|CEAc fedc|
d2 cd Bcde|fB~B2 Bcde|fc~c2 acfc|1 ecAc Bcdc:|2 ecAc ~B3 c||
|:d2 cd Bcde|fgab afed|(3cdc Bc ABce|a3 b afec|
d2 cd Bcde|fB~B2 Bcde|fc~c2 acfc|ecAc ~B3 c:|

